EdiMM/images/drawingcursor.svg

<svg id="drawingcursor" xmlns="http://www.w3.org/2000/svg" width="24" height="24" viewBox="0 0 24 24">
  <path id="Caminho_28" data-name="Caminho 28" d="M0,0H24V24H0Z" fill="none"/>
  <g id="Caminho_29" data-name="Caminho 29" transform="translate(0 0)">
    <path d="M 6.539999008178711 21.5 L 3.499999284744263 21.5 C 2.939249277114868 21.5 2.499999284744263 21.06074905395508 2.499999284744263 20.5 L 2.499999284744263 17.45999908447266 C 2.499999284744263 17.18712997436523 2.602509260177612 16.94038009643555 2.796449184417725 16.74645042419434 L 12.0446195602417 7.498279571533203 L 12.39816951751709 7.14471960067749 L 12.75171947479248 7.498279571533203 L 16.49671936035156 11.24327945709229 L 16.85027885437012 11.59682941436768 L 16.49671936035156 11.95037937164307 L 7.251150131225586 21.19594955444336 C 7.071060657501221 21.38937759399414 6.812801361083984 21.5 6.539999008178711 21.5 Z M 18.8799991607666 9.577109336853027 L 18.52644920349121 9.223549842834473 L 14.77644920349121 5.473549842834473 L 14.42288970947266 5.119999885559082 L 14.77644920349121 4.766449928283691 L 16.60644912719727 2.936449766159058 C 16.8895092010498 2.653389692306519 17.26543998718262 2.497499704360962 17.66499900817871 2.497499704360962 C 18.06455993652344 2.497499704360962 18.44048881530762 2.653389692306519 18.72354888916016 2.936449766159058 L 21.06354904174805 5.276449680328369 C 21.64723968505859 5.860129833221436 21.64723968505859 6.809869766235352 21.06354904174805 7.393549919128418 L 19.23354911804199 9.223549842834473 L 18.8799991607666 9.577109336853027 Z" stroke="none"/>
    <path d="M 6.539999008178711 21 C 6.669999122619629 21 6.799999237060547 20.95000076293945 6.889999389648438 20.85000038146973 L 16.14316940307617 11.59682941436768 L 12.39816951751709 7.851830005645752 L 3.149999141693115 17.10000038146973 C 3.049999237060547 17.20000076293945 2.999999284744263 17.31999969482422 2.999999284744263 17.45999908447266 L 2.999999284744263 20.5 C 2.999999284744263 20.78000068664551 3.219999313354492 21 3.499999284744263 21 L 6.539999008178711 21 M 18.8799991607666 8.869999885559082 L 20.70999908447266 7.039999961853027 C 21.09999847412109 6.649999618530273 21.09999847412109 6.019999980926514 20.70999908447266 5.62999963760376 L 18.36999893188477 3.289999723434448 C 18.17499923706055 3.09499979019165 17.92000007629395 2.997499704360962 17.66499900817871 2.997499704360962 C 17.40999984741211 2.997499704360962 17.15499877929688 3.09499979019165 16.95999908447266 3.289999723434448 L 15.1299991607666 5.119999885559082 L 18.8799991607666 8.869999885559082 M 6.539999008178711 22 L 3.499999284744263 22 C 2.67289924621582 22 1.999999284744263 21.32710075378418 1.999999284744263 20.5 L 1.999999284744263 17.45999908447266 C 1.999999284744263 17.05747032165527 2.157289266586304 16.67849922180176 2.442889213562012 16.39288902282715 L 11.69105911254883 7.14471960067749 L 12.39816951751709 6.437619686126709 L 13.10527896881104 7.14471960067749 L 16.85027885437012 10.88971996307373 L 17.5573787689209 11.59682941436768 L 16.85027885437012 12.30393981933594 L 7.609933853149414 21.54428482055664 C 7.335868358612061 21.83432960510254 6.947937965393066 22 6.539999008178711 22 Z M 18.8799991607666 10.28421020507813 L 18.17288970947266 9.577109336853027 L 14.42288970947266 5.827109813690186 L 13.71578884124756 5.119999885559082 L 14.42288970947266 4.412889957427979 L 16.25288963317871 2.582889795303345 C 16.63039016723633 2.205399751663208 17.13188934326172 1.997499823570251 17.66499900817871 1.997499823570251 C 18.1981086730957 1.997499823570251 18.69960975646973 2.205399751663208 19.07710838317871 2.582889795303345 L 21.4171085357666 4.922889709472656 C 22.19574928283691 5.701529979705811 22.19574928283691 6.968469619750977 21.4171085357666 7.747109889984131 L 19.58710861206055 9.577109336853027 L 18.8799991607666 10.28421020507813 Z" stroke="none" fill="#fff"/>
  </g>
</svg>

<svg id="drawingcursor" xmlns="http://www.w3.org/2000/svg" width="24" height="24" viewBox="0 0 24 24">
  <path id="Caminho_28" data-name="Caminho 28" d="M0,0H24V24H0Z" fill="none"/>
  <g id="Caminho_29" data-name="Caminho 29">
    <path id="Caminho_77" data-name="Caminho 77" d="M6.54,21.5H3.5a.989.989,0,0,1-1-1V17.46a.99.99,0,0,1,.3-.713L12.045,7.5l.354-.354.354.354L16.5,11.243l.354.353-.354.354L7.251,21.2A.97.97,0,0,1,6.54,21.5ZM18.88,9.577l-.354-.354-3.75-3.75-.353-.354.353-.354,1.83-1.83a1.5,1.5,0,0,1,2.117,0l2.34,2.34a1.5,1.5,0,0,1,0,2.117l-1.83,1.83Z" fill="#262626"/>
    <path id="Caminho_78" data-name="Caminho 78" d="M6.54,21a.469.469,0,0,0,.35-.15L16.143,11.6,12.4,7.852,3.15,17.1a.491.491,0,0,0-.15.36V20.5a.5.5,0,0,0,.5.5H6.54M18.88,8.87l1.83-1.83a1,1,0,0,0,0-1.41L18.37,3.29a1,1,0,0,0-1.41,0L15.13,5.12l3.75,3.75M6.54,22H3.5A1.5,1.5,0,0,1,2,20.5V17.46a1.5,1.5,0,0,1,.443-1.067l9.248-9.248.707-.707.707.707L16.85,10.89l.707.707-.707.707-9.24,9.24A1.472,1.472,0,0,1,6.54,22ZM18.88,10.284l-.707-.707-3.75-3.75-.707-.707.707-.707,1.83-1.83a2,2,0,0,1,2.824,0l2.34,2.34a2,2,0,0,1,0,2.824l-1.83,1.83Z" fill="#fff"/>
  </g>
</svg>
